frontend/public/svg/e-commerce/cart-remove.svg

<svg width="158" height="145" viewBox="0 0 158 145" fill="none" xmlns="http://www.w3.org/2000/svg">
<path d="M44.5731 51.8433L91.0415 49.0939C91.2955 47.2378 91.5626 45.3903 91.8002 43.5394C93.8854 27.2977 107.993 15.7056 120.325 13.9308C133.853 11.9841 150.374 16.6215 155.619 33.0851C157.15 37.6841 157.446 42.6048 156.477 47.354C155.447 52.3173 153.957 57.1408 151.202 61.4496C147.55 67.1597 142.517 71.1358 135.844 72.6729C133.996 73.0989 133.245 73.9456 132.84 75.6691C131.457 81.5578 130.098 87.4589 128.443 93.2747C127.491 96.4783 126.262 99.5933 124.771 102.585C123.742 104.711 121.478 105.174 119.278 105.21C117.147 105.244 115.012 105.073 112.88 105.029C95.2539 104.663 77.6266 104.304 59.999 103.952C59.4542 103.941 58.9074 103.998 57.8205 104.048C59.1791 109.008 60.4649 113.707 61.874 118.853C63.1211 118.853 64.4377 118.861 65.751 118.853C83.4962 118.722 101.242 118.56 118.987 118.504C121.102 118.528 123.202 118.847 125.228 119.451C126.116 119.665 126.908 120.168 127.477 120.881C128.048 121.594 128.364 122.477 128.377 123.39C128.389 124.303 128.097 125.194 127.547 125.923C126.997 126.651 126.22 127.176 125.338 127.414C123.113 128.034 120.856 128.538 118.578 128.924C121.521 135.047 121.184 139.153 117.478 141.794C114.292 144.064 109.818 143.96 107.174 141.551C103.819 138.495 103.885 134.127 107.511 128.583H79.2839C81.1216 131.428 83.1464 133.939 81.8843 137.105C81.2982 138.658 80.3425 140.045 79.0994 141.145C77.5918 142.35 75.7062 142.981 73.7772 142.927C71.8476 142.872 70.0006 142.135 68.5632 140.847C65.2556 137.931 65.1945 134.399 68.3585 128.412C65.4708 128.132 62.5763 127.941 59.7121 127.545C57.1786 127.194 55.6788 125.828 54.8341 123.176C53.0764 117.652 50.4328 112.392 48.9075 106.818C43.7638 88.0207 38.9403 69.1366 34.0132 50.2807C31.5782 40.9607 29.1189 31.6453 26.8341 22.2879C26.718 21.5825 26.4268 20.9175 25.9871 20.3538C25.5475 19.7901 24.9736 19.3458 24.3177 19.0614C20.0538 17.0678 15.7956 15.0607 11.5434 13.0405C9.11886 11.8827 6.64986 10.7876 4.34546 9.4204C3.21058 8.7216 2.27907 7.73703 1.64399 6.56528C1.35159 6.0196 1.19374 5.41204 1.18362 4.79304C1.17351 4.17404 1.3114 3.56164 1.58582 3.0067C1.86024 2.45176 2.26313 1.9704 2.76117 1.60269C3.25922 1.23497 3.838 0.991385 4.44913 0.892509C5.65911 0.682672 6.90319 0.800311 8.05245 1.23318C15.2082 4.14863 22.3319 7.14409 29.4235 10.2197C32.6454 11.6223 34.871 13.8152 34.1018 17.8018C34.0793 18.3612 34.1845 18.9183 34.4096 19.4309C37.5902 29.7012 40.7787 39.9691 43.9751 50.2342C44.1096 50.6503 44.2823 51.057 44.5731 51.8433ZM124.02 73.5485C122.814 73.3293 121.723 73.1488 120.637 72.9309C117.126 72.2247 113.543 71.7593 110.126 70.7361C103.633 68.7907 97.9488 65.4479 94.3573 59.4588C93.2415 57.602 91.9604 57.1924 90.0045 57.2456C78.6741 57.5541 67.3411 57.7569 56.0064 58.0247C52.8113 58.1008 49.6182 58.2769 45.9932 58.4246C49.3314 71.1141 52.563 83.3962 55.688 95.2713H117.556C119.766 87.856 121.838 80.8929 124.022 73.5485H124.02ZM127.124 64.7752C136.417 64.7752 142.346 61.0126 145.81 52.4913C146.469 50.8271 147.015 49.1203 147.445 47.3829C150.166 36.7804 145.335 27.2135 134.955 23.8813C130.117 22.3277 124.892 21.795 119.794 21.331C117.565 21.2116 115.359 21.8188 113.505 23.0615C104.791 29.0998 99.5995 37.148 100.001 48.2152C100.15 52.3455 101.637 55.7375 104.946 58.0163C107.389 59.7796 110.105 61.1293 112.985 62.0114C117.603 63.2834 122.403 63.8885 127.126 64.7752H127.124Z" fill="black"/>
<path d="M123.294 45.2952C120.492 45.2952 117.69 45.3155 114.888 45.284C113.994 45.2985 113.102 45.2092 112.229 45.0177C110.02 44.4631 108.887 43.2186 108.786 41.4268C108.678 39.5234 109.861 37.8827 112.081 37.3445C113.832 36.9616 115.612 36.7245 117.402 36.6356C122.431 36.27 127.463 35.9411 132.498 35.6838C133.948 35.5882 135.405 35.6801 136.833 35.9568C137.735 36.0966 138.562 36.5418 139.175 37.2176C139.789 37.8934 140.152 38.7592 140.204 39.6705C140.324 40.5188 140.155 41.3826 139.724 42.1231C139.293 42.8638 138.627 43.4383 137.83 43.7544C135.974 44.4951 134.02 44.967 132.03 45.1561C129.135 45.3872 126.207 45.2157 123.293 45.2157L123.294 45.2952Z" fill="black"/>
</svg>

<svg xmlns="http://www.w3.org/2000/svg" width="158" height="145" fill="none" viewBox="0 0 158 145"><path fill="#000" d="m44.573 51.843 46.469-2.75c.254-1.855.52-3.703.758-5.554 2.085-16.241 16.193-27.833 28.525-29.608 13.528-1.947 30.049 2.69 35.294 19.154a27.67 27.67 0 0 1 .858 14.269c-1.03 4.963-2.52 9.787-5.275 14.096-3.652 5.71-8.685 9.686-15.358 11.223-1.848.426-2.599 1.273-3.004 2.996-1.383 5.889-2.742 11.79-4.397 17.606a58 58 0 0 1-3.672 9.31c-1.029 2.126-3.293 2.589-5.493 2.625-2.131.034-4.266-.137-6.398-.181q-26.439-.549-52.881-1.077c-.545-.011-1.092.046-2.178.096l4.053 14.805c1.247 0 2.564.008 3.877 0 17.745-.131 35.491-.293 53.236-.349 2.115.024 4.215.343 6.241.947a4.109 4.109 0 0 1 .11 7.963 67 67 0 0 1-6.76 1.51c2.943 6.123 2.606 10.229-1.1 12.87-3.186 2.27-7.66 2.166-10.304-.243-3.355-3.056-3.289-7.424.337-12.968H79.284c1.838 2.845 3.862 5.356 2.6 8.522a10.2 10.2 0 0 1-2.785 4.04 8.16 8.16 0 0 1-10.536-.298c-3.307-2.916-3.368-6.448-.204-12.435-2.888-.28-5.783-.471-8.647-.867-2.533-.351-4.033-1.717-4.878-4.369-1.758-5.524-4.401-10.784-5.927-16.358-5.143-18.797-9.967-37.681-14.894-56.537-2.435-9.32-4.894-18.636-7.179-27.993a4.27 4.27 0 0 0-2.516-3.227q-6.396-2.99-12.775-6.02C9.12 11.883 6.65 10.788 4.345 9.42a7.6 7.6 0 0 1-2.701-2.856A3.887 3.887 0 0 1 4.449.893a6.9 6.9 0 0 1 3.603.34q10.734 4.374 21.372 8.987c3.221 1.402 5.447 3.595 4.678 7.582-.023.56.083 1.116.308 1.629q4.77 15.405 9.565 30.803c.135.416.307.823.598 1.61M124.02 73.55c-1.206-.22-2.297-.4-3.383-.618-3.511-.706-7.094-1.172-10.511-2.195-6.493-1.945-12.177-5.288-15.769-11.277-1.115-1.857-2.397-2.267-4.353-2.213-11.33.308-22.663.51-33.998.779-3.195.076-6.388.252-10.013.4l9.695 36.846h61.868c2.21-7.415 4.282-14.378 6.466-21.722zm3.104-8.774c9.293 0 15.222-3.762 18.686-12.284a40 40 0 0 0 1.635-5.108c2.721-10.603-2.11-20.17-12.49-23.502-4.838-1.553-10.063-2.086-15.161-2.55a10.3 10.3 0 0 0-6.289 1.73C104.791 29.1 99.6 37.149 100.001 48.216c.149 4.13 1.636 7.522 4.945 9.801a27.5 27.5 0 0 0 8.039 3.995c4.618 1.272 9.418 1.877 14.141 2.764z"/><path fill="#000" d="M123.294 45.295c-2.802 0-5.604.02-8.406-.011a11.5 11.5 0 0 1-2.659-.266c-2.209-.555-3.342-1.8-3.443-3.591-.108-1.904 1.075-3.544 3.295-4.083a32.4 32.4 0 0 1 5.321-.708 703 703 0 0 1 15.096-.952 17 17 0 0 1 4.335.273 3.99 3.99 0 0 1 3.371 3.713 3.82 3.82 0 0 1-2.374 4.084 21 21 0 0 1-5.8 1.402c-2.895.231-5.823.06-8.737.06z"/></svg>
